X:1
T:Mentre Tirsi non miro
T:Giovanni Croce Chiozotto
T:Source : Canzonette a 3 voci---Libro primo---Venetia---G.Vincenti-1601. Editor : André Vierendeels (12/02/15).
T:Aria secunda 
T:Mentre Tirsi non miro
C:Giovanni Croce Ghizotto
%%score [ 1 2 3 ]
L:1/8
Q:1/4=120
M:4/4
K:C
V:1 treble nm="Canto" snm="C"
V:2 treble nm="Alto" snm="A"
V:3 treble-8 nm="Tenor" snm="T"
V:1
 E6 E2 | E4 E2 ^F2 | G4 G2 A2 | G2 F2 F2 ED | F4 E4 | z2 E4 E2 | E4 E2 ^F2 | G4 G2 A2 | %8
w: Men- tre|Tir- si non|mi- ro Pro-|vo mar- ti- * *|* ro,|men- tre|Tir- si non|mi- ro Pro-|
w: Re- sto|pa- li- da'e-|san- gue, e'il|mio cor lan- * *|* gue:|re- sto|pa- li- da"e-|san- gue, e'il|
w: S'io di-|te te- sto|pri- va, non|son piu vi- * *|* va:|s'io di-|te te- sto|pri- va, non|
w: Que- sto|so- lo vo-|gl'i- o, Tir-|si cor mi- * *|* o;|que- sto|so- lo vo-|gl'i- o, Tir-|
 G2 F2 F2 ED | F4 E4 | z2 AA A2 AA | A4 _B4 | A2 A2 G4 | F4 G4 | G2 F2 E4 | D8 | z2 AA A2 AA | %17
w: vo mar- ti- * *|* ro,-|s'io lo veg- go di-|poi co'l|se- ren vi-|so fo|fe- sta'e ri-|so,|s'io lo veg- go di-|
w: mio cor lan- * *|* gue:|s'io ti ve- gh'o- ti-|sen- t'o-|gni mia no-|ia mi|di- vien gio-|ia,|s'io ti ve- gh'o ti|
w: son piu vi- * *|* va:|ma se sco- pro'il tuo|vol- to|i' pro- vo'e|sen- t'o-|gni con- ten-|to,|ma se sco- pro'il tuo|
w: si cor mi- * *|* o;|ch'io ti ri- ve- gha|fe tu|vuoi che Flo-|ra vi-|ta'e non mo-|ra,|ch'io ti ri- ve- gha|
 A4 _B4 | A2 A2 G4 | F4 G4 | G2 F2 E4 | D8 |] %22
w: poi co'l|se- ren vi-|so fo|fe- sta'e ri-|so.-|
w: sen- t'o-|gni mia no-|ia, mi|di- vien gio-|ia.|
w: vol- to|i pro- vo'e|sen- t'o-|gni con- ten-|to.|
w: fe tu|vuoi che Flo-|ra vi-|ta'e non mo-|ra.|
V:2
 C6 ^C2 | ^C4 C2 D2 | E4 E2 F2 | E2 D2 D4- | D4 ^C4 | z2 C4 ^C2 | ^C4 C2 D2 | E4 E2 F2 | %8
w: Men- tre|Tir- si non|mi- ro Pro-|vo mar- ti-|* ro,|men- tre|Tir- si non|mi- ro Pro-|
w: Re- sto|pa- li- da'e-|san- gue, e'il|mio cor lan-|* gue:|re- sto|pa- li- da'e-|san- gue, e'il|
w: S'io di-|te te- sto|pri- va, non|son piu vi-|* va:|s'io di-|te te- sto|pri- va, non|
w: Que- sto|so- lo vo-|gl'i- o, Tir-|si cor mi-|* o;|que- sto|so- lo vo-|gl'i- o, Tir-|
 E2 D2 D4- | D4 ^C4 | z2 FF F2 FF | F4 D4 | C2 F2 E4 | F4 E4 | E2 D2 ^C4 | D8 | z2 CC F2 FF | %17
w: vo mar- ti-|* ro,|s'io lo veg- go di-|poi co'l|se- ren vi-|so fo|fe- stra'e ri-|so,|s'io lo veg- go di-|
w: mio cor lan-|* gue:|s'io ti ve- gh'o ti|sen- t'o-|gni mia no-|ia mi|di- vien gio-|ia,|s'io ti ve- gh'o ti|
w: son piu vi-|* va:|ma se sco- pro'il tuo|vol- to|i pro- vo'e|sen- t'o-|gni con- ten-|to,|ma se sco- pro'il tuo|
w: si cor mi-|* o;|ch'io ti ri- ve- gha|fe tu|vuoi che Flo-|ra vi-|ta'e non mo-|ra,|ch'io ti ri- ve- gha|
 F4 D4 | C2 F2 E4 | F4 E4 | E2 D2 ^C4 | D8 |] %22
w: poi co'l|se- ren vi-|so, fo|fe- sta'e ri-|so.|
w: sen- t'o-|gni mia no-|ia, mi|di- vien gio-|ia.|
w: vol- to|i pro- vo'e|sen- t'o-|gni con- trn-|to.|
w: fe tu|vuoi che Flo-|ra vi-|ta'e non mo-|ra.|
V:3
 A6 A2 | A4 A2 d2 | c4 c2 F2 | c2 d2 _B4 | A8 | z2 A4 A2 | A4 A2 d2 | c4 c2 F2 | c2 d2 _B4 | A8 | %10
w: Men- tre|Tir- si non|mi- ro Pro-|vo mar- ti-|ro,|men- tre|Tir- si non|mi- ro Pro-|vo mar- ti-|ro,|
w: Re- sto|pa- l- da'e-|san- gue, e'il|mio cor lan-|gue:|re- sto|pa- li- da'e-|san- gue, e'il|mio cor lan-|gue:|
w: S'io di-|te te- sto|pri- va, non|son piu vi-|va:|s'io di-|te te- sto|pri- va, non|son piu vi-|va:|
w: Que- sto|so- lo vo-|gl'i- o, Tir-|si cor mi-|o;|que- sto|so- lo vo-|gl'i- o, Tir-|si cor mi-|o,|
 z2 FF F2 FF | F4 G4 | A2 F2 c4 | F4 c4 | c2 d2 A4 | D8 | z2 FF F2 FF | F4 G4 | A2 F2 c4 | F4 c4 | %20
w: s'io lo veg- go di-|poi co'l|se- ren vi-|so fo|fe- stra'e ri-|so,|s'io lo veg- go di-|poi co'l|se- ren vi-|so, fo|
w: s'io ti ve- gh'o ti|sen- t'o-|gni mia no-|ia mi|di- vien gio-|ia,|s'io ti ve- gh'o ti|sen- t'o-|gni mia no-|ia, mi|
w: ma se sco- oro'il tuo|vol- to|i pro- vo'e|sen- t'o-|gni con- ten-|to,|ma se sco- pro'il tuo|vol- to|i pro- vo'e|sen- t'o-|
w: ch'io ti ri- ve- gha|fe tu|vuoi che Flo-|ra vi-|ta'e non mo-|ra,|ch'io ti ri- ve- gha|fe tu|vuoi che Flo-|ra vi-|
 c2 d2 A4 | D8 |] %22
w: fe- stra'e ri-|so.|
w: di- vien gio-|ia.|
w: gni con- ten-|to.|
w: ta'e non mo-|ra.|

